X: 39365
T: Tammy Sullivan
R: reel
M: 4/4
K: Dmajor
|D2 DE {F}EDFE|DFAc d2 dA|BF{G}FE FABc|d2 (B/c/d) AFGE|
D2 DE {F}EDFE|DFAc dAFA|BF F/F/F dF F/F/F|AFEG FDDz:|
|:a2 ^ga fdAd|afdB ABdf|e2 ce Acec|ac^gc =gece|
(3(aba) ^ga fdAd|afdB ABde|fBBA BcdB|AFEG FDDz:|

